svg/Filled/chevron-back-circle_filled.svg

<svg viewBox="0 0 24 24" xmlns="http://www.w3.org/2000/svg" width="24" height="24"><path fill-rule="evenodd" d="M12 1a11 11 0 1 1 0 22 11 11 0 0 1 0-22m1.64 6.4a1 1 0 0 0-1.41 0l-2.76 2.76q-.3.28-.51.53-.18.2-.32.48l-.08.2a2 2 0 0 0 0 1.24l.08.2q.14.3.32.5l.5.53 2.77 2.76.08.06a1 1 0 0 0 1.4-1.4l-.07-.08-2.76-2.76-.4-.41v-.02c.08-.1.2-.2.4-.42l2.76-2.76a1 1 0 0 0 0-1.41" clip-rule="evenodd"/></svg>

<svg viewBox="0 0 24 24" xmlns="http://www.w3.org/2000/svg" width="24" height="24"><path fill-rule="evenodd" d="M12 1a11 11 0 1 1 0 22 11 11 0 0 1 0-22M13.64 7.4A1 1 0 0 0 12.23 7.4L9.47 10.16Q9.17 10.44 8.96 10.69Q8.78 10.89 8.64 11.17L8.56 11.37A2 2 0 0 0 8.56 12.61L8.64 12.81Q8.78 13.11 8.96 13.31L12.31 16.66A1 1 0 0 0 13.71 15.26L10.48 11.99C10.56 11.89 10.68 11.79 10.88 11.57L13.64 8.81A1 1 0 0 0 13.64 7.4" clip-rule="evenodd"/></svg>
